lib/flags/s/300.svg

<svg xmlns="http://www.w3.org/2000/svg" fill="none" viewBox="0 0 16 12"><mask id="300_svg__a" width="16" height="12" x="0" y="0" mask-type="alpha" maskUnits="userSpaceOnUse"><path fill="#fff" d="M0 0H16V12H0z"/></mask><g mask="url(#300_svg__a)"><path fill="#F7FCFF" fill-rule="evenodd" d="M0 0H16V12H0V0Z" clip-rule="evenodd"/><path fill="#4564F9" d="M.014 2.75H16.014V4.25H.014z"/><path fill="#4564F9" fill-rule="evenodd" d="M0 0H16V1.5H0V0Z" clip-rule="evenodd"/><path fill="#4564F9" d="M-.029 5.5H15.971V7H-.029z"/><path fill="#4564F9" d="M.056 8.2H16.056V9.7H.056z"/><path fill="#4564F9" d="M.051 10.75H16.051V12.25H.051z"/><path fill="#4564F9" fill-rule="evenodd" d="M0 0H8V7H0V0Z" clip-rule="evenodd"/><path fill="#F7FCFF" fill-rule="evenodd" d="M3.23554 0H4.81769V2.75H8V4.64319H4.81769V7.5H3.23554V4.64319H0V2.75H3.23554V0Z" clip-rule="evenodd"/></g></svg>

<svg xmlns="http://www.w3.org/2000/svg" fill="none" viewBox="0 0 16 12"><mask id="300_svg__a" width="16" height="12" x="0" y="0" maskUnits="userSpaceOnUse"><path fill="#fff" d="M0 0h16v12H0z"/></mask><g mask="url(#300_svg__a)"><path fill="#F7FCFF" fill-rule="evenodd" d="M0 0h16v12H0V0z" clip-rule="evenodd"/><path fill="#4564F9" d="M.014 2.75h16v1.5h-16z"/><path fill="#4564F9" fill-rule="evenodd" d="M0 0h16v1.5H0V0z" clip-rule="evenodd"/><path fill="#4564F9" d="M-.029 5.5h16V7h-16zm.085 2.7h16v1.5h-16zm-.005 2.55h16v1.5h-16z"/><path fill="#4564F9" fill-rule="evenodd" d="M0 0h8v7H0V0z" clip-rule="evenodd"/><path fill="#F7FCFF" fill-rule="evenodd" d="M3.236 0h1.582v2.75H8v1.893H4.818V7.5H3.236V4.643H0V2.75h3.236V0z" clip-rule="evenodd"/></g></svg>
